svgs/duotone/truck-clock.svg

<svg xmlns="http://www.w3.org/2000/svg" viewBox="0 0 640 512"><!--! Font Awesome Pro 6.5.1 by @fontawesome - https://fontawesome.com License - https://fontawesome.com/license (Commercial License) Copyright 2023 Fonticons, Inc. --><defs><style>.fa-secondary{opacity:.4}</style></defs><path class="fa-secondary" d="M224 112v48h16c8.8 0 16 7.2 16 16s-7.2 16-16 16H208c-8.8 0-16-7.2-16-16V112c0-8.8 7.2-16 16-16s16 7.2 16 16zM96 432a80 80 0 1 1 160 0A80 80 0 1 1 96 432zm288 0a80 80 0 1 1 160 0 80 80 0 1 1 -160 0z"/><path class="fa-primary" d="M0 48C0 21.5 21.5 0 48 0H368c26.5 0 48 21.5 48 48V96h50.7c17 0 33.3 6.7 45.3 18.7L589.3 192c12 12 18.7 28.3 18.7 45.3V256v32 64c17.7 0 32 14.3 32 32s-14.3 32-32 32H576h-1.1c-7.8-54.3-54.4-96-110.9-96s-103.1 41.7-110.9 96H286.9c-7.8-54.3-54.4-96-110.9-96s-103.1 41.7-110.9 96H48c-26.5 0-48-21.5-48-48V48zM416 256H544V237.3L466.7 160H416v96zM208 288a112 112 0 1 0 0-224 112 112 0 1 0 0 224z"/></svg>

<svg xmlns="http://www.w3.org/2000/svg" viewBox="0 0 640 512"><!--! Font Awesome Pro 6.1.1 by @fontawesome - https://fontawesome.com License - https://fontawesome.com/license (Commercial License) Copyright 2022 Fonticons, Inc. --><defs><style>.fa-secondary{opacity:.4}</style></defs><path class="fa-primary" d="M.0003 48C.0003 21.49 21.49 0 48 0H368C394.5 0 416 21.49 416 48V96H466.7C483.7 96 499.1 102.7 512 114.7L589.3 192C601.3 204 608 220.3 608 237.3V352C625.7 352 640 366.3 640 384C640 401.7 625.7 416 608 416H574.9C567.1 361.7 520.4 320 464 320C407.6 320 360.9 361.7 353.1 416H286.9C279.1 361.7 232.4 320 176 320C119.6 320 72.9 361.7 65.13 416H48C21.49 416 0 394.5 0 368L.0003 48zM544 256V237.3L466.7 160H416V256H544zM208 288C269.9 288 320 237.9 320 176C320 114.1 269.9 64 208 64C146.1 64 96 114.1 96 176C96 237.9 146.1 288 208 288z"/><path class="fa-secondary" d="M224 160H240C248.8 160 256 167.2 256 176C256 184.8 248.8 192 240 192H208C199.2 192 192 184.8 192 176V112C192 103.2 199.2 96 208 96C216.8 96 224 103.2 224 112V160zM256 432C256 476.2 220.2 512 176 512C131.8 512 96 476.2 96 432C96 387.8 131.8 352 176 352C220.2 352 256 387.8 256 432zM544 432C544 476.2 508.2 512 464 512C419.8 512 384 476.2 384 432C384 387.8 419.8 352 464 352C508.2 352 544 387.8 544 432z"/></svg>
